exported-svg/crop.svg

<?xml version="1.0" encoding="UTF-8"?>
<svg width="24px" height="24px" viewBox="0 0 24 24" version="1.1" xmlns="http://www.w3.org/2000/svg" xmlns:xlink="http://www.w3.org/1999/xlink">
    <!-- Generator: Sketch 55.2 (78181) - https://sketchapp.com -->
    <title>crop</title>
    <desc>Created with Sketch.</desc>
    <g id="crop" stroke="none" stroke-width="1" fill="none" fill-rule="evenodd">
        <path d="M6.59030637,5.5815389 L15.9999996,5.5 C17.3807119,5.5 18.4999996,6.61928813 18.4999996,8 L18.4999996,17.4999996 L23,17.4999996 C23.2761424,17.4999996 23.5,17.7238576 23.5,17.9999996 C23.5,18.2761424 23.2761424,18.4999996 23,18.4999996 L18.4999996,18.4999996 L18.4999996,23 C18.4999996,23.2761424 18.2761424,23.5 17.9999996,23.5 C17.7238576,23.5 17.4999996,23.2761424 17.4999996,23 L17.4999996,18.4999996 L8,18.4999996 C6.61928813,18.4999996 5.50001878,17.3807119 5.50001878,15.9956668 L5.58153185,6.59031217 L1.00433317,6.62998122 C0.728201166,6.63237437 0.502411921,6.41046518 0.499999601,6.13433317 C0.497625633,5.85820117 0.719534825,5.63241192 0.995666829,5.63001878 L5.59019944,5.59020524 L5.63001878,0.995666829 C5.63241192,0.719534825 5.85820117,0.497625633 6.13433317,0.499999601 C6.41046518,0.502411921 6.63237437,0.728201166 6.62998122,1.00433317 L6.59030637,5.5815389 Z M6.58163754,6.58164459 L6.5,15.9999996 C6.5,16.8284271 7.17157288,17.4999996 8,17.4999996 L17.4999996,17.4999996 L17.4999996,8 C17.4999996,7.17157288 16.8284271,6.5 16.0043332,6.49998122 L6.58163754,6.58164459 Z" id="Combined-Shape" fill="#000000" fill-rule="nonzero"></path>
    </g>
</svg>

<svg height="24" viewBox="0 0 24 24" width="24" xmlns="http://www.w3.org/2000/svg"><path d="m6.59030637 5.5815389 9.40969323-.0815389c1.3807123 0 2.5 1.11928813 2.5 2.5v9.4999996h4.5000004c.2761424 0 .5.223858.5.5 0 .2761428-.2238576.5-.5.5h-4.5000004v4.5000004c0 .2761424-.2238572.5-.5.5-.276142 0-.5-.2238576-.5-.5v-4.5000004h-9.4999996c-1.38071187 0-2.49998122-1.1192877-2.49998122-2.5043328l.08151307-9.40535463-4.57719868.03966905c-.276132.00239315-.50192125-.21951604-.50433357-.49564805-.00237397-.276132.21953523-.50192125.49566723-.50431439l4.59453261-.03981354.03981934-4.59453841c.00239314-.276132.22818239-.4980412.50431439-.49566723.27613201.00241232.4980412.22820157.49564805.50433357zm-.00866883 1.00010569-.08163754 9.41835501c0 .8284275.67157288 1.5 1.5 1.5h9.4999996v-9.4999996c0-.82842712-.6715725-1.5-1.4956664-1.50001878z"/></svg>
